X:10
T: Sej, haj, lemegyek az Alföldre
O: Oroszlány (Komárom), Balogh András (31), 1952.10
Q: "Tempo guisto" 1/4=96
M: 4/4
L: 1/4
K: Bb
B2 F2 | B/B/A/G/ | FDE<C | B,2 B, z |
d<B F<d | cGAB | F2 Fz | 
d<B F<d | cGA<B | c2 Bz | 
B2 F2 | B/B/A/G/ | FDEC | B,2 B, z |

